app/dist/common/images/modular-medical.svg

<svg height="18" viewBox="0 0 18 18" width="18" xmlns="http://www.w3.org/2000/svg"><path d="m0 0h18v18h-18z" fill="#f0f3fa"/><path d="m11.5 14h.5v-4h-.8l-1.8 4h.6l1.5-3.5z" fill="#00aedf"/><path d="m7 4 2 5 2-5h1v3h-.5v-2.76l-2.28 5.76h-.4l-2.32-5.76v2.76h-.5v-3z" fill="#f8a15c"/><path d="m6.9 10 1.7 4h-.6l-1.5-3.5v3.5h-.5v-4z" fill="#00aedf"/></svg>

<!-- by TradingView --><svg width="18" height="18" viewBox="0 0 18 18" xmlns="http://www.w3.org/2000/svg"><path fill="#F0F3FA" d="M0 0h18v18H0z"/><path d="M11.5 14h.5v-4h-.8l-1.8 4h.6l1.5-3.5V14Z" fill="#00AEDF"/><path d="m7 4 2 5 2-5h1v3h-.5V4.24L9.22 10h-.4L6.5 4.24V7H6V4h1Z" fill="#F8A15C"/><path d="m6.9 10 1.7 4H8l-1.5-3.5V14H6v-4h.9Z" fill="#00AEDF"/></svg>
